packages/foundations/assets/icons/functional/images/transportation/electric_car_24.svg

<svg width="24" height="24" viewBox="0 0 24 24" fill="none" xmlns="http://www.w3.org/2000/svg">
<g clip-path="url(#clip0_187_907)">
<path fill-rule="evenodd" clip-rule="evenodd" d="M14.75 3.00072C15.3023 3.00072 15.75 3.44843 15.75 4.00072C15.75 4.51355 15.3482 5.00017 14.75 5.00072C12.3311 5.00292 9.91214 5.00292 7.49309 5.00072C7.35029 5.00072 7.18038 5.1328 7.1352 5.2929L6.259 9.00072H13C13 7.99979 14 7.00072 15 7.00072C14.9939 6.46352 15.5 6.00072 15.993 6.00072H19C19.4458 6.00072 20 6.50072 20 7.00072C21 7.00072 22 8.00072 22 9.00072C22 9.66738 22 13.0007 22 19.0007C22 20.0007 21 21.0007 20 21.0007H15C14 21.0007 13 20.0007 13 19.0007V17.9767C12.8282 17.9927 12.4948 18.0007 12 18.0007C11.0641 18.0007 9.4808 17.9054 7.25 17.7147V18.0007C7.25 18.553 6.80228 19.0007 6.25 19.0007H5.25C4.69772 19.0007 4.25 18.553 4.25 18.0007L4.25011 16.2437C4.06128 15.9388 3.92541 15.5972 3.85531 15.2313L3.82124 15.009L3.44951 11.7873C3.41842 11.5179 3.43139 11.2535 3.48269 11.0015L2.64823 11.0007C2.2782 11.0007 2 10.6794 2 10.3114V9.64472C2 9.27605 2.2782 9.00072 2.64823 9.00072H4.206L5.16105 4.90968C5.40716 3.85492 6.259 3.00072 7.49309 3.00072C9.91202 2.99878 12.331 2.99878 14.75 3.00072ZM19.5 9.00072C18.3294 9.00072 16.9961 9.00072 15.5 9.00072C15.2545 9.00072 15.0002 9.27125 15 9.50072C14.9973 12.5002 14.9973 15.5002 15 18.5007C15 18.7462 15.1967 19.0001 15.5 19.0007C16.8333 19.0033 18.1666 19.0033 19.5 19.0007C19.7973 19.0007 20 18.7463 20 18.5007C20 17.4994 20 14.4994 20 9.50072C20 9.25526 19.785 9.00072 19.5 9.00072ZM17.3043 11.3904C17.5008 11.0258 17.9557 10.8895 18.3203 11.086C18.6545 11.2662 18.7969 11.6634 18.667 12.0092L17.998 13.2637L18.2429 13.2642C18.7768 13.2654 19.1737 13.8382 18.8985 14.3753C18.6037 14.9094 18.1948 15.6542 17.6717 16.6098C17.4722 16.9728 17.0162 17.1054 16.6532 16.9059C16.3204 16.7231 16.1469 16.2719 16.3571 15.8874C16.5225 15.5884 16.7281 15.2128 16.974 14.7607L16.7423 14.7608C16.2109 14.7596 15.8149 14.1964 16.0838 13.655C16.4894 12.8977 16.8962 12.1428 17.3043 11.3904ZM13 11.0007L5.90433 11.0015L5.87572 11.004C5.63188 11.0321 5.44935 11.2313 5.43403 11.4678L5.43632 11.558L5.495 12.0687L6.6644 12.2643C7.20917 12.3551 7.57719 12.8703 7.48639 13.4151C7.40208 13.921 6.95181 14.2744 6.45174 14.2496L6.3356 14.2371L5.734 14.1367L5.80806 14.7798C5.85777 15.2105 6.17795 15.5554 6.5938 15.6434L6.70946 15.6609L7.13539 15.6997L8.32765 15.8021L9.3912 15.8832L10.3255 15.9432L11.1301 15.9819L11.5941 15.996L12 16.0007L12.4059 15.996L12.8699 15.9819L13 15.9757V15.009L9.85503 15.0092L9.73806 15.0023C9.46819 14.9706 9.22251 14.8301 9.05831 14.6135C8.9029 14.3626 8.76282 14.1274 8.63807 13.9079C8.35727 13.4151 8.52721 12.8826 8.89587 12.6039C9.26453 12.3251 9.98237 12.2947 10.297 12.7967L10.4316 13.0128L13 13.0093V11.0007Z" fill="#1A1C1F"/>
</g>
<defs>
<clipPath id="clip0_187_907">
<rect width="24" height="24" fill="white"/>
</clipPath>
</defs>
</svg>

<svg xmlns="http://www.w3.org/2000/svg" width="24" height="24" fill="none"><g clip-path="url(#a)"><path fill="#1A1C1F" fill-rule="evenodd" d="M14.75 3a1 1 0 0 1 1 1c0 .514-.402 1-1 1q-3.629.004-7.257 0c-.143 0-.313.133-.358.293L6.26 9H13C13 8 14 7 15 7c-.006-.537.5-1 .993-1H19c.446 0 1 .5 1 1 1 0 2 1 2 2v10c0 1-1 2-2 2h-5c-1 0-2-1-2-2v-1.024A13 13 0 0 1 12 18q-1.404 0-4.75-.286V18a1 1 0 0 1-1 1h-1a1 1 0 0 1-1-1v-1.757a3 3 0 0 1-.395-1.013l-.034-.222-.371-3.222a2.5 2.5 0 0 1 .033-.786h-.835c-.37 0-.648-.322-.648-.69v-.666A.63.63 0 0 1 2.648 9h1.558l.955-4.091C5.407 3.855 6.26 3 7.493 3zm4.75 6h-4c-.245 0-.5.271-.5.5q-.005 4.5 0 9c0 .246.197.5.5.5q2 .005 4 0c.297 0 .5-.254.5-.5v-9c0-.245-.215-.5-.5-.5m-2.196 2.39a.75.75 0 0 1 1.363.62l-.669 1.254h.245c.534.001.93.574.656 1.111q-.443.802-1.227 2.235a.75.75 0 0 1-1.019.296.757.757 0 0 1-.296-1.019q.248-.448.617-1.126h-.232a.753.753 0 0 1-.658-1.106q.608-1.136 1.22-2.265M13 11l-7.096.002-.028.002a.5.5 0 0 0-.442.464l.002.09.059.51 1.17.196a1 1 0 0 1-.213 1.986l-.116-.013-.602-.1.074.643a1 1 0 0 0 .786.863l.115.018.426.039 1.193.102 1.063.081.934.06.805.039.464.014.406.005.406-.005.464-.014.13-.006v-.967H9.855l-.117-.007a1 1 0 0 1-.68-.389 22 22 0 0 1-.42-.705.994.994 0 0 1 .258-1.304c.369-.279 1.086-.31 1.401.193l.135.216L13 13.009z" clip-rule="evenodd"/></g><defs><clipPath id="a"><path fill="#fff" d="M0 0h24v24H0z"/></clipPath></defs></svg>
